!! 00000] TT[WS
!!!OTL: Danxiang zhu niangjia buxiang hui
!!!ARE: Asia, China, Shanxi Hequ
!! Ethnic Group: Han
!! WII, 2
!!!SCT: J0403
!!!YEM: Copyright 1995, estate of Helmut Schaffrath.
**kern
*ICvox
*Ivox
*M2/4
*k[b-]
*F:
{8g
8g
16g
16ff
16dd
16ff
=1
8f
16d
16Bn
4c
=2
8c
8cc
16bn
16cc
16ff
16dd
=3
2g}
=4
{8g
8g
16g
16ff
16dd
16ff
=5
8f
16d
16Bn
4c
=6
8c
8cc
16bn
16cc
16ff
16d
=7
2c}
==
!!!AGN: Shange, Shanqu. Qingge, Aisu
!!!ONB: ESAC (Essen Associative Code) Database: CHINA
!!!AMT: simple duple
!!!AIN: vox
!!!EED: Helmut Schaffrath
!!!EEV: 1.0
*-
